gallery/swipe_left/scroll left.svg

<svg height="239" viewBox="0 0 120 239" width="120" xmlns="http://www.w3.org/2000/svg"><path d="m237.717789 119.860992c0-65.367233-52.990616-118.357849-118.357842-118.357849-65.367233 0-118.357851 52.990616-118.357851 118.357849 0 65.367234 52.990618 118.35785 118.357851 118.35785 65.367226 0 118.357842-52.990616 118.357842-118.35785z" fill="#282828" fill-rule="evenodd"/><path d="m49.289562 145.461304-23.706341-23.708359m0 0 23.706341-23.708328m-23.706341 23.708328h71.119088" fill="none" stroke="#fff" stroke-linecap="round" stroke-linejoin="round" stroke-width="12.117243"/></svg>

<?xml version="1.0" encoding="UTF-8"?>
<!-- Generated by Pixelmator Pro 3.5.11 -->
<svg width="120" height="239" viewBox="0 0 120 239" xmlns="http://www.w3.org/2000/svg">
    <path id="Cirle-w-Arrow" fill="#282828" fill-rule="evenodd" stroke="none" d="M 237.717789 119.860992 C 237.717789 54.493759 184.727173 1.503143 119.359947 1.503143 C 53.992714 1.503143 1.002096 54.493759 1.002096 119.860992 C 1.002096 185.228226 53.992714 238.218842 119.359947 238.218842 C 184.727173 238.218842 237.717789 185.228226 237.717789 119.860992 Z"/>
    <path id="Arrow-right-bracket-copy" fill="none" stroke="#ffffff" stroke-width="12.117243" stroke-linecap="round" stroke-linejoin="round" d="M 49.289562 145.461304 L 25.583221 121.752945 M 25.583221 121.752945 L 49.289562 98.044617 M 25.583221 121.752945 L 96.702309 121.752945"/>
</svg>
